app/img/_src/main/advantages/adv-3.svg

<svg width="60" height="60" viewBox="0 0 60 60" fill="none" xmlns="http://www.w3.org/2000/svg">
<path d="M57 40H54C57.6183 31.3156 56.2629 21.354 50.4558 13.9521C44.6487 6.55014 35.296 2.86269 26 4.31V3C26 1.34315 24.6569 0 23 0H3C1.34315 0 0 1.34315 0 3V17C0 18.6569 1.34315 20 3 20H6C2.38171 28.6844 3.73713 38.646 9.5442 46.0479C15.3513 53.4499 24.704 57.1373 34 55.69V57C34 58.6569 35.3431 60 37 60H57C58.6569 60 60 58.6569 60 57V43C60 41.3431 58.6569 40 57 40ZM51.92 40H43.29L38.62 37.09C39.09 37 38 37 52.94 37C52.19 39.47 51.92 39.51 51.92 40ZM53.8 27H42.8C42.1396 26.9974 41.5073 26.7325 41.0422 26.2636C40.5771 25.7948 40.3173 25.1604 40.32 24.5C40.32 23.3031 39.8432 22.1554 38.9949 21.3109C38.1467 20.4664 36.9969 19.9947 35.8 20H34.64C33.2593 20 32.14 18.8807 32.14 17.5C32.14 16.1193 33.2593 15 34.64 15H40.44C42.6628 14.9916 44.5417 13.3513 44.85 11.15C49.8165 15.038 53.0357 20.7391 53.8 27ZM2 17V3C2 2.44772 2.44772 2 3 2H23C23.5523 2 24 2.44772 24 3V22.2L17.53 18.15C17.18 17.93 18.23 18 3 18C2.73478 18 2.48043 17.8946 2.29289 17.7071C2.10536 17.5196 2 17.2652 2 17ZM8.08 20H16.71L21.36 22.91C20.89 23.04 21.11 23 16.08 23C13.5947 23 11.58 25.0147 11.58 27.5C11.58 29.9853 13.5947 32 16.08 32H25.36C26.7407 32 27.86 33.1193 27.86 34.5C27.86 35.8807 26.7407 37 25.36 37H7.06C4.16 27.51 8.08 20.65 8.08 20ZM7.76 39H25.36C27.8453 39 29.86 36.9853 29.86 34.5C29.86 32.0147 27.8453 30 25.36 30H16.08C14.6993 30 13.58 28.8807 13.58 27.5C13.58 26.1193 14.6993 25 16.08 25H20.72C21.6588 25.022 22.5744 24.7061 23.3 24.11C24.53 24.89 24.63 25 25 25C25.5523 25 26 24.5523 26 24V6.34C31.9039 5.32522 37.9734 6.57126 43 9.83C42.9602 10.0511 42.9401 10.2753 42.94 10.5C42.9427 11.1639 42.6801 11.8013 42.2107 12.2707C41.7413 12.7401 41.1039 13.0027 40.44 13H34.64C32.1547 13 30.14 15.0147 30.14 17.5C30.14 19.9853 32.1547 22 34.64 22H35.8C37.1729 22.011 38.28 23.1271 38.28 24.5C38.28 26.9775 40.2825 28.989 42.76 29H54C54.1051 31.0134 53.9369 33.0318 53.5 35H39.24C38.3134 34.9761 37.4088 35.2847 36.69 35.87L35.53 35.15C35.2214 34.9571 34.8324 34.9471 34.5144 35.1238C34.1963 35.3006 33.9993 35.6361 34 36V41.28C33.5452 41.7392 32.9263 41.9983 32.28 42H26C23.5147 42.127 21.603 44.2447 21.73 46.73C21.857 49.2153 23.9747 51.127 26.46 51H27.62C28.2804 51.0026 28.9127 51.2675 29.3778 51.7364C29.8429 52.2052 30.1027 52.8396 30.1 53.5V54C20.287 54.0373 11.4398 48.097 7.76 39ZM32.12 53.9V53.5C32.12 51.0225 30.1175 49.011 27.64 49H26.48C25.0993 49.0746 23.9196 48.0157 23.845 46.635C23.7704 45.2543 24.8293 44.0746 26.21 44H32.28C32.8711 44.0009 33.4562 43.8818 34 43.65V53.65C33.41 53.76 32.79 53.85 32.12 53.9ZM58 57C58 57.5523 57.5523 58 57 58H37C36.4477 58 36 57.5523 36 57V37.8C43.12 42.26 42.6 42 43 42H57C57.5523 42 58 42.4477 58 43V57Z" fill="url(#paint0_linear)"/>
<path d="M6 6H7C7.55228 6 8 5.55229 8 5C8 4.44772 7.55228 4 7 4H6C5.44771 4 5 4.44772 5 5C5 5.55229 5.44771 6 6 6Z" fill="url(#paint1_linear)"/>
<path d="M11 6H20C20.5523 6 21 5.55229 21 5C21 4.44772 20.5523 4 20 4H11C10.4477 4 10 4.44772 10 5C10 5.55229 10.4477 6 11 6Z" fill="url(#paint2_linear)"/>
<path d="M6 11H16C16.5523 11 17 10.5523 17 10C17 9.44772 16.5523 9 16 9H6C5.44772 9 5 9.44772 5 10C5 10.5523 5.44772 11 6 11Z" fill="url(#paint3_linear)"/>
<path d="M21 15C21 14.4477 20.5523 14 20 14H6C5.44772 14 5 14.4477 5 15C5 15.5523 5.44772 16 6 16H20C20.5523 16 21 15.5523 21 15Z" fill="url(#paint4_linear)"/>
<path d="M55 49H39C38.4477 49 38 49.4477 38 50C38 50.5523 38.4477 51 39 51H55C55.5523 51 56 50.5523 56 50C56 49.4477 55.5523 49 55 49Z" fill="url(#paint5_linear)"/>
<path d="M41 53H39C38.4477 53 38 53.4477 38 54C38 54.5523 38.4477 55 39 55H41C41.5523 55 42 54.5523 42 54C42 53.4477 41.5523 53 41 53Z" fill="url(#paint6_linear)"/>
<path d="M55 53H45C44.4477 53 44 53.4477 44 54C44 54.5523 44.4477 55 45 55H55C55.5523 55 56 54.5523 56 54C56 53.4477 55.5523 53 55 53Z" fill="url(#paint7_linear)"/>
<path d="M39 47H49C49.5523 47 50 46.5523 50 46C50 45.4477 49.5523 45 49 45H39C38.4477 45 38 45.4477 38 46C38 46.5523 38.4477 47 39 47Z" fill="url(#paint8_linear)"/>
<defs>
<linearGradient id="paint0_linear" x1="30" y1="0" x2="30" y2="60" gradientUnits="userSpaceOnUse">
<stop stop-color="#8888D3"/>
<stop offset="1" stop-color="#5E60A3"/>
</linearGradient>
<linearGradient id="paint1_linear" x1="6.5" y1="4" x2="6.5" y2="6" gradientUnits="userSpaceOnUse">
<stop stop-color="#8888D3"/>
<stop offset="1" stop-color="#5E60A3"/>
</linearGradient>
<linearGradient id="paint2_linear" x1="15.5" y1="4" x2="15.5" y2="6" gradientUnits="userSpaceOnUse">
<stop stop-color="#8888D3"/>
<stop offset="1" stop-color="#5E60A3"/>
</linearGradient>
<linearGradient id="paint3_linear" x1="11" y1="9" x2="11" y2="11" gradientUnits="userSpaceOnUse">
<stop stop-color="#8888D3"/>
<stop offset="1" stop-color="#5E60A3"/>
</linearGradient>
<linearGradient id="paint4_linear" x1="13" y1="14" x2="13" y2="16" gradientUnits="userSpaceOnUse">
<stop stop-color="#8888D3"/>
<stop offset="1" stop-color="#5E60A3"/>
</linearGradient>
<linearGradient id="paint5_linear" x1="47" y1="49" x2="47" y2="51" gradientUnits="userSpaceOnUse">
<stop stop-color="#8888D3"/>
<stop offset="1" stop-color="#5E60A3"/>
</linearGradient>
<linearGradient id="paint6_linear" x1="40" y1="53" x2="40" y2="55" gradientUnits="userSpaceOnUse">
<stop stop-color="#8888D3"/>
<stop offset="1" stop-color="#5E60A3"/>
</linearGradient>
<linearGradient id="paint7_linear" x1="50" y1="53" x2="50" y2="55" gradientUnits="userSpaceOnUse">
<stop stop-color="#8888D3"/>
<stop offset="1" stop-color="#5E60A3"/>
</linearGradient>
<linearGradient id="paint8_linear" x1="44" y1="45" x2="44" y2="47" gradientUnits="userSpaceOnUse">
<stop stop-color="#8888D3"/>
<stop offset="1" stop-color="#5E60A3"/>
</linearGradient>
</defs>
</svg>

<svg width="60" height="60" fill="none" xmlns="http://www.w3.org/2000/svg"><path d="M57 40h-3A26 26 0 0026 4.31V3a3 3 0 00-3-3H3a3 3 0 00-3 3v14a3 3 0 003 3h3a26 26 0 0028 35.69V57a3 3 0 003 3h20a3 3 0 003-3V43a3 3 0 00-3-3zm-5.08 0h-8.63l-4.67-2.91C39.09 37 38 37 52.94 37c-.75 2.47-1.02 2.51-1.02 3zm1.88-13h-11a2.49 2.49 0 01-2.48-2.5A4.5 4.5 0 0035.8 20h-1.16a2.5 2.5 0 010-5h5.8a4.47 4.47 0 004.41-3.85A23.79 23.79 0 0153.8 27zM2 17V3a1 1 0 011-1h20a1 1 0 011 1v19.2l-6.47-4.05c-.35-.22.7-.15-14.53-.15a1 1 0 01-1-1zm6.08 3h8.63l4.65 2.91c-.47.13-.25.09-5.28.09a4.5 4.5 0 100 9h9.28a2.5 2.5 0 010 5H7.06c-2.9-9.49 1.02-16.35 1.02-17zm-.32 19h17.6a4.5 4.5 0 100-9h-9.28a2.5 2.5 0 010-5h4.64a3.92 3.92 0 002.58-.89c1.23.78 1.33.89 1.7.89a1 1 0 001-1V6.34a23.83 23.83 0 0117 3.49 3.76 3.76 0 00-.06.67 2.49 2.49 0 01-2.5 2.5h-5.8a4.5 4.5 0 100 9h1.16a2.5 2.5 0 012.48 2.5 4.5 4.5 0 004.48 4.5H54a22.319 22.319 0 01-.5 6H39.24a3.88 3.88 0 00-2.55.87l-1.16-.72A1 1 0 0034 36v5.28a2.43 2.43 0 01-1.72.72H26a4.506 4.506 0 10.46 9h1.16a2.49 2.49 0 012.48 2.5v.5A24 24 0 017.76 39zm24.36 14.9v-.4a4.5 4.5 0 00-4.48-4.5h-1.16a2.504 2.504 0 01-.27-5h6.07a4.37 4.37 0 001.72-.35v10c-.59.11-1.21.2-1.88.25zM58 57a1 1 0 01-1 1H37a1 1 0 01-1-1V37.8c7.12 4.46 6.6 4.2 7 4.2h14a1 1 0 011 1v14z" fill="url(#paint0_linear)"/><path d="M6 6h1a1 1 0 100-2H6a1 1 0 100 2z" fill="url(#paint1_linear)"/><path d="M11 6h9a1 1 0 100-2h-9a1 1 0 100 2z" fill="url(#paint2_linear)"/><path d="M6 11h10a1 1 0 100-2H6a1 1 0 000 2z" fill="url(#paint3_linear)"/><path d="M21 15a1 1 0 00-1-1H6a1 1 0 100 2h14a1 1 0 001-1z" fill="url(#paint4_linear)"/><path d="M55 49H39a1 1 0 100 2h16a1 1 0 100-2z" fill="url(#paint5_linear)"/><path d="M41 53h-2a1 1 0 100 2h2a1 1 0 100-2z" fill="url(#paint6_linear)"/><path d="M55 53H45a1 1 0 100 2h10a1 1 0 100-2z" fill="url(#paint7_linear)"/><path d="M39 47h10a1 1 0 100-2H39a1 1 0 100 2z" fill="url(#paint8_linear)"/><defs><linearGradient id="paint0_linear" x1="30" y1="0" x2="30" y2="60" gradientUnits="userSpaceOnUse"><stop stop-color="#8888D3"/><stop offset="1" stop-color="#5E60A3"/></linearGradient><linearGradient id="paint1_linear" x1="6.5" y1="4" x2="6.5" y2="6" gradientUnits="userSpaceOnUse"><stop stop-color="#8888D3"/><stop offset="1" stop-color="#5E60A3"/></linearGradient><linearGradient id="paint2_linear" x1="15.5" y1="4" x2="15.5" y2="6" gradientUnits="userSpaceOnUse"><stop stop-color="#8888D3"/><stop offset="1" stop-color="#5E60A3"/></linearGradient><linearGradient id="paint3_linear" x1="11" y1="9" x2="11" y2="11" gradientUnits="userSpaceOnUse"><stop stop-color="#8888D3"/><stop offset="1" stop-color="#5E60A3"/></linearGradient><linearGradient id="paint4_linear" x1="13" y1="14" x2="13" y2="16" gradientUnits="userSpaceOnUse"><stop stop-color="#8888D3"/><stop offset="1" stop-color="#5E60A3"/></linearGradient><linearGradient id="paint5_linear" x1="47" y1="49" x2="47" y2="51" gradientUnits="userSpaceOnUse"><stop stop-color="#8888D3"/><stop offset="1" stop-color="#5E60A3"/></linearGradient><linearGradient id="paint6_linear" x1="40" y1="53" x2="40" y2="55" gradientUnits="userSpaceOnUse"><stop stop-color="#8888D3"/><stop offset="1" stop-color="#5E60A3"/></linearGradient><linearGradient id="paint7_linear" x1="50" y1="53" x2="50" y2="55" gradientUnits="userSpaceOnUse"><stop stop-color="#8888D3"/><stop offset="1" stop-color="#5E60A3"/></linearGradient><linearGradient id="paint8_linear" x1="44" y1="45" x2="44" y2="47" gradientUnits="userSpaceOnUse"><stop stop-color="#8888D3"/><stop offset="1" stop-color="#5E60A3"/></linearGradient></defs></svg>
